X:1
T:Brahms Waltz op. 39 n. 9 Piano Four Hands
T:Waltz op. 39 n. 9
T:J. Brahms
C:J. Brahms
%%score { ( 1 5 ) | ( 2 6 ) | 3 | 4 }
L:1/8
Q:1/4=136
M:3/4
K:F
V:1 treble nm="Primo\n\n\n\n\n\n\n\n\n\nSecondo"
V:5 treble 
V:2 treble 
V:6 treble 
V:3 bass 
V:4 bass 
V:1
 (d2 |!p! A2) z2 (f2 | ^c2) z2 (e2 |!<(! A2) z2 (a2 | d2) z2 (b2!<)! | ^c2) z2 (a2 | =c2) z2 (g2 | %7
 B2)!>(! (_e2 A2)!>)! | A4 :: (d'2 | b2) z2 (f'2 | b2) z2 (_e'2 | _a2) z2!8va(! (_a'2 | %13
 g'2) z2 (g'2- | g'2 =a2) (g'2- | g'2 a2) (g'2- | g'2 ^c'2) (a'2- | a'2 d'2) ([d'd'']2 | %18
 b'2) z2 (g'2 | e'2) z2 ([c'c'']2 | a'2) z2 ([ff']2 ||1 d'2) z2 ([bb']2 | ^g'2) z2 ([aa']2 | %23
 ^f'2) z2 ([gg']2 | e'2) (=f'2 d'2) | [a^c']4 :|2 d'2!8va)! z2 ([ff']2 | ^g2) z2 ([ee']2 | %28
 =g2) z2 ([dd']2 |!<(! f2)!>(! (b2!<)! e2)!>)! | [^ce]4 z2 |] %31
V:2
 z2 | z2 z4 | z6 | z6 | z6 | z6 | z6 | z2 G4 | ^F4 :: (d2 | B2) z2 (f2 | B2) z2 (_e2 | %12
 _A2) z2 (_a2 | g2) z2 (g2- | g2 =A2) (g2- | g2 A2) (g2- | g2 ^c2) (a2- | a2 d2) z2 | %18
 ([db]2 B2) z2 | ([Ge]2 E2) z2 | ([ca]2 A2) z2 ||1 ([Fd]2 D2) z2 | ([f^g]2 d2) z2 | %23
 ([e^f]2 A2) z2 | e2 (=f2 d2) | [A^c]4 :|2 ([Fd]2 D2) z2 | ([F^G]2 D2) z2 | ([E=G]2 A,2) z2 | %29
 [DF]2 (B2 E2) | [^CE]4 z2 |] %31
V:3
 z2 | z2 [F,A,D]2 z2 | z2 [B,^CE]2 z2 | z2!<(! [F,A,D]2 z2 | z2 [G,B,D]2!<)! z2 | z2 [G,B,E]2 z2 | %6
 z2 [^F,A,_E]2 z2 |!<(! [G,B,D]2!>(! z2 [A,_E]2!<)!!>)! | z2!p! [D,D]2 :: z2 | z2 [F,_A,B,]2 z2 | %11
 z2 [_E,G,B,]2 z2 | z2 [F,B,D]2 z2 |"_cresc.\n" z2 [_E,B,_E]2 z2 | z2[K:treble] [A,=EG]2 z2 | %15
 z2!<(! [A,DG]2 z2 | z2 [A,G]2 z2 | z2 [A,DA]2!<)! z2 |!p! z2 [B,D=F]2 z2 | z2 [B,C]2 z2 | %20
 z2 [A,CE]2 z2 ||1 z2 [A,B,]2 z2 | z2 [DF]2 z2 | z2 [A,E]2 z2 | z2[K:bass] [D,D]2 z2 | z2 A,2 :|2 %26
 z2[K:treble] [A,B,]2 z2 | z2[K:bass] [D,F,]2 z2 | z2 [^C,E,]2 z2 |!<(! D,2!>(! z2!<)! E,2!>)! | %30
 z2 [A,,A,]2 z2 |] %31
V:4
 z2 |!p! D,,2 z2 z2 | E,,2 z2 z2 | F,,2 z2 z2 | G,,2 z2 z2 | G,,2 z2 z2 | ^F,,2 z2 z2 | %7
 G,,2 [C,,C,]4 | D,,4 :: z2 | _A,,2 z2 z2 | G,,2 z2 z2 | F,,2 z2 z2 | _E,,2 z2 z2 | ^C,,2 z2 ^C,2 | %15
 D,,2 z2 D,2 | =E,,2 z2 E,2 | ^F,,2 z2 ^F,2 | G,,2 z2 z2 | C,2 z2 z2 | F,,2 z2 z2 ||1 B,,2 z2 z2 | %22
 =B,,2 z2 z2 | ^C,2 z2 z2 | D,,2 z2 _B,,,2 | [A,,,A,,]2 z2 :|2 B,,2 z2 z2 | [=B,,,=B,,]2 z2 z2 | %28
 ^C,,2 z4 | D,,2 [G,,,G,,]4 | A,,,4 z2 |] %31
V:5
 x2 | x6 | x6 | x6 | x6 | x6 | x6 | x6 | x4 :: x2 | x6 | x6 | x4!8va(! x2 | x6 | x6 | x6 | x6 | %17
 x6 | x6 | x6 | x6 ||1 x6 | x6 | x6 | x2 ^g4 | x4 :|2 x2!8va)! x4 | x6 | x6 | x2 d4 | x6 |] %31
V:6
 x2 | x6 | x6 | x6 | x6 | x6 | x6 | x6 | x4 :: x2 | x6 | x6 | x6 | x6 | x6 | x6 | x6 | x6 | x6 | %19
 x6 | x6 ||1 x6 | x6 | x6 | d2 ^G4 | x4 :|2 x6 | x6 | x6 | x6 | x6 |] %31

